X:382
T: Wangjianglai
N: C1884
O: China, Guangdong Xingning
S: II, 354, 1)]
R: Xiaodiao, Wujuban]
M: 2/4
L: 1/16
K: F
FDDFD2D2z2GA | AGF2G8
A2AGF2G2 | GFDFD2D2z4
D2D2FGG2 | D2FGFDD2z4
F2F2G2FD | GFD2D2F2- | F8 |
DFF2GFG2 | D2FGD2D2- | D8

